pix_core/e/insert_date.svg

<svg preserveAspectRatio="xMinYMid meet" viewBox="0 0 448 512" xmlns="http://www.w3.org/2000/svg"><path d="m152 24c0-13.3-10.7-24-24-24s-24 10.7-24 24v40h-40c-35.3 0-64 28.7-64 64v16 48 256c0 35.3 28.7 64 64 64h320c35.3 0 64-28.7 64-64v-256-48-16c0-35.3-28.7-64-64-64h-40v-40c0-13.3-10.7-24-24-24s-24 10.7-24 24v40h-144zm-104 168h352v256c0 8.8-7.2 16-16 16h-320c-8.8 0-16-7.2-16-16zm176 40c-13.3 0-24 10.7-24 24v48h-48c-13.3 0-24 10.7-24 24s10.7 24 24 24h48v48c0 13.3 10.7 24 24 24s24-10.7 24-24v-48h48c13.3 0 24-10.7 24-24s-10.7-24-24-24h-48v-48c0-13.3-10.7-24-24-24z" fill="#fff"/></svg>

<svg xmlns="http://www.w3.org/2000/svg" viewBox="0 0 448 512" preserveAspectRatio="xMinYMid meet"><path fill="#fff" d="M152 24c0-13.3-10.7-24-24-24s-24 10.7-24 24V64H64C28.7 64 0 92.7 0 128v16 48V448c0 35.3 28.7 64 64 64H384c35.3 0 64-28.7 64-64V192 144 128c0-35.3-28.7-64-64-64H344V24c0-13.3-10.7-24-24-24s-24 10.7-24 24V64H152V24zM48 192H400V448c0 8.8-7.2 16-16 16H64c-8.8 0-16-7.2-16-16V192zm176 40c-13.3 0-24 10.7-24 24v48H152c-13.3 0-24 10.7-24 24s10.7 24 24 24h48v48c0 13.3 10.7 24 24 24s24-10.7 24-24V352h48c13.3 0 24-10.7 24-24s-10.7-24-24-24H248V256c0-13.3-10.7-24-24-24z"/></svg>
